X: 14149
T: Frog's Frollic
R: jig
M: 6/8
K: Gminor
D|~G3 B2G|d2G BAG|~F3 A2F|c2F AGF|
~G3 B2c|d2 G B2c|ded cBA|dBG G2:|
a|bc'/b/a/b/ g2a|bc'/b/a/b/ g2b|ac'a f2c'|ac'a f2c'|
bd'b g2a|bd'b g2a|bd'b ac'a|d'bg g2a|
~b3 d'bg|~b3 d'bg|~a3 c'af|~a3 c'af|
bd'b ac'a|gbg f2c|ded cBA|dBG G2||

